svg/300/outlined/file_open-fill.svg

<svg xmlns="http://www.w3.org/2000/svg" width="48" height="48" viewBox="0 -960 960 960"><path d="M878-89.385 742.692-224.694v130h-45.384v-207.998h207.999v45.384H774.306L909.615-122 878-89.385ZM540.001-620.001h194.614L540.001-814.615v194.614Zm-302.307 520q-23.616 0-40.654-17.039-17.039-17.038-17.039-40.654v-644.612q0-23.616 17.039-40.654 17.038-17.039 40.654-17.039h332.307l209.998 209.998v281.924H631.923v268.076H237.694Z"/></svg>

<svg xmlns="http://www.w3.org/2000/svg" width="48" height="48" viewBox="0 -960 960 960"><path d="m878-89.39-135.31-135.3v130h-45.38v-208h208v45.38h-131L909.61-122 878-89.39ZM540-620h194.61L540-814.61V-620ZM237.69-100q-23.61 0-40.65-17.04T180-157.69v-644.62q0-23.61 17.04-40.65T237.69-860H570l210 210v281.92H631.92V-100H237.69Z"/></svg>
